src/icons/svg/WarningOutline.svg

<svg width="24" height="24" viewBox="0 0 24 24" fill="none" xmlns="http://www.w3.org/2000/svg">
<path d="M12 18.752H13.5V17.252H12V18.752ZM12.75 1.50101L1.5 22.501H24L12.75 1.50101V1.50101ZM12.75 3.75201L21.75 21.002H3.75L12.75 3.75201V3.75201ZM12.75 9.00201C12.337 9.00201 12 9.33801 12 9.75201V15.002C12 15.416 12.336 15.752 12.75 15.752C13.164 15.752 13.5 15.416 13.5 15.002V9.75201C13.5 9.33801 13.164 9.00201 12.75 9.00201Z" fill="#1C2125"/>
</svg>

<!-- Generated by IcoMoon.io -->
<svg version="1.1" xmlns="http://www.w3.org/2000/svg" width="24" height="24" viewBox="0 0 24 24">
<title>warning-outline</title>
<path fill="#444" d="M12 18.752h1.5v-1.5h-1.5v1.5zM12.75 1.501l-11.25 21h22.5l-11.25-21zM12.75 3.752l9 17.25h-18l9-17.25zM12.75 9.002c-0.413 0-0.75 0.336-0.75 0.75v5.25c0 0.414 0.336 0.75 0.75 0.75s0.75-0.336 0.75-0.75v-5.25c0-0.414-0.336-0.75-0.75-0.75z"></path>
</svg>
